projects/cortex/icon/black/cortex-icon-black.svg

<svg id="Layer_1" data-name="Layer 1" xmlns="http://www.w3.org/2000/svg" viewBox="0 0 432 432"><title>cortex-horizontal-black</title><path d="M215.49337,4.85812c-116.43188,0-211.1557,94.72375-211.1557,211.15564s94.72382,211.15576,211.1557,211.15576,211.1557-94.72375,211.1557-211.15576S331.92525,4.85812,215.49337,4.85812Zm0,413.00537c-111.30023,0-201.84961-90.54944-201.84961-201.84973,0-111.3,90.54938-201.84961,201.84961-201.84961S417.343,104.71371,417.343,216.01376C417.343,327.314,326.79366,417.86349,215.49337,417.86349Z"/><circle cx="329.64345" cy="220.79964" r="34.94727"/><circle cx="214.66587" cy="354.18665" r="34.94724"/><path d="M329.64266,159.7806a60.43929,60.43929,0,0,0-27.75806,6.71411l-59.64252-56.6604A34.95336,34.95336,0,1,0,237.852,114.223l58.45685,55.53394a60.81293,60.81293,0,0,0-27.46332,49.65723H255.73482l-23.712-67.749-26.33838,65.42261H176.27126l-24.99341,57.8418L129.232,219.81258l-.06366.02539v-.5918h-22.2876a34.95752,34.95752,0,1,0-.278,6.204h18.20044l26.25354,65.63171,29.292-67.79H209.874l21.74292-54.00525,19.71637,56.33167h17.70648a60.82754,60.82754,0,0,0,25.47632,44.59021l-57.13434,57.1344,4.38647,4.38641,58.11792-58.118A60.80653,60.80653,0,1,0,329.64266,159.7806Zm0,115.42163a54.60876,54.60876,0,1,1,54.60962-54.60962A54.67066,54.67066,0,0,1,329.64266,275.20223Z"/></svg>

<svg xmlns="http://www.w3.org/2000/svg" role="img" viewBox="-4.20 -3.70 439.14 439.14"><path d="M215.493 4.858C99.061 4.858 4.338 99.582 4.338 216.014S99.06 427.17 215.493 427.17 426.65 332.446 426.65 216.014 331.925 4.858 215.493 4.858zm0 413.005c-111.3 0-201.85-90.549-201.85-201.85 0-111.3 90.55-201.849 201.85-201.849s201.85 90.55 201.85 201.85-90.55 201.85-201.85 201.85z"/><circle cx="329.643" cy="220.8" r="34.947"/><circle cx="214.666" cy="354.187" r="34.947"/><path d="M329.643 159.78a60.44 60.44 0 0 0-27.758 6.715l-59.643-56.66a34.953 34.953 0 1 0-4.39 4.388l58.457 55.534a60.813 60.813 0 0 0-27.463 49.657h-13.111l-23.712-67.749-26.339 65.423h-29.413l-24.993 57.842-22.046-55.117-.064.025v-.592h-22.287a34.958 34.958 0 1 0-.278 6.204h18.2l26.254 65.632 29.292-67.79h29.525l21.743-54.005 19.716 56.331h17.707a60.828 60.828 0 0 0 25.476 44.59l-57.134 57.135 4.386 4.386 58.118-58.118a60.807 60.807 0 1 0 29.757-113.83zm0 115.422a54.609 54.609 0 1 1 54.61-54.61 54.67 54.67 0 0 1-54.61 54.61z"/></svg>
